ashes/src/images/icons/products.svg

<?xml version="1.0" encoding="UTF-8" standalone="no"?>
<svg width="18px" height="18px" viewBox="0 0 18 18" version="1.1" xmlns="http://www.w3.org/2000/svg" xmlns:xlink="http://www.w3.org/1999/xlink">
    <!-- Generator: Sketch 42 (36781) - http://www.bohemiancoding.com/sketch -->
    <title>Icon_Products</title>
    <desc>Created with Sketch.</desc>
    <defs></defs>
    <g id="Page-1" stroke="none" stroke-width="1" fill="none" fill-rule="evenodd">
        <g id="Artboard-Copy" transform="translate(-70.000000, -299.000000)" fill-rule="nonzero" fill="#FFFFFF">
            <g id="Icon_Products" transform="translate(70.000000, 299.000000)">
                <path d="M17.4697535,8.62049845 L9.36901316,0.522740083 C9.04651225,0.198011242 8.59499726,0 8.10077463,0 L1.79848501,0 C0.810005484,0 0,0.810005484 0,1.79848501 L0,8.09998629 C0,8.59424319 0.198011242,9.0457239 0.530246481,9.37874749 L8.63098684,17.4765058 C8.95348775,17.802023 9.40500274,18 9.89922537,18 C10.3934823,18 10.844963,17.8019888 11.1674639,17.4697535 L17.4689652,11.1682522 C17.8019545,10.8449973 17.9999657,10.3935165 17.9999657,9.89925964 C17.9999657,9.40500274 17.7922544,8.94601563 17.4697535,8.62049845 Z M4.49851929,6.29851929 C3.50506618,6.29851929 2.69851929,5.4959462 2.69851929,4.49851929 C2.69851929,3.50506618 3.50506618,2.69851929 4.49851929,2.69851929 C5.49599188,2.69851929 6.29851929,3.50506618 6.29851929,4.49851929 C6.29851929,5.4959462 5.4959462,6.29851929 4.49851929,6.29851929 Z" id="Shape"></path>
            </g>
        </g>
    </g>
</svg>

<svg xmlns="http://www.w3.org/2000/svg" width="18" height="18"><path fill="#FFF" d="M17.47 8.62L9.37.52C9.05.2 8.6 0 8.1 0H1.8C.8 0 0 .8 0 1.8v6.3c0 .5.2.95.53 1.28l8.1 8.1c.32.32.78.52 1.27.52.5 0 .94-.2 1.27-.53l6.3-6.3c.33-.33.53-.78.53-1.27 0-.5-.2-.95-.53-1.28zM4.5 6.3c-1 0-1.8-.8-1.8-1.8s.8-1.8 1.8-1.8 1.8.8 1.8 1.8-.8 1.8-1.8 1.8z"/></svg>
